Origami/64x64/apps/portal.svg

<svg width="64" height="64" version="1" xmlns="http://www.w3.org/2000/svg">
 <circle cx="32" cy="32" r="28" style="fill:#56aad4"/>
 <path d="m32.014728 5c1.011896 0 2.00576 0.0624 2.985598 0.168a28.052598 27.998952 0 0 0 -2.985598 -0.168zm-1.867502 0.0664a28.052598 27.998952 0 0 0 -0.559048 0.0586c0.18836-0.017 0.370694-0.0454 0.559048-0.0586zm5.91509 0.26179c0.649218 0.0956 1.298436 0.1964 1.931622 0.335788a28.052598 27.998952 0 0 0 -1.931622 -0.335788zm-8.21941 0.0078a28.052598 27.998952 0 0 0 -1.134128 0.1914c0.374704-0.0734 0.753414-0.1328 1.134128-0.1914zm-2.398498 0.476382c-0.22442 0.0542-0.454852 0.0974-0.67727 0.1564l0.03006 0.0312a28.052598 27.998952 0 0 1 0.647214 -0.1876zm-0.647214 0.1876a28.052598 27.998952 0 0 0 -2.18209 0.648376l12.812022 12.789122a14.026299 13.999476 0 0 0 -3.412398 -0.437984h-24.267502a28.052598 27.998952 0 0 0 -1.0417532 1.999914h18.115767a14.026299 13.999476 0 0 0 -2.719098 2.105922l-4e-3 -4e-3 -16.691897 16.659376a28.052598 27.998952 0 0 0 0.7670382 2.061922l12.253575-12.229542a14.026299 13.999476 0 0 0 -0.438422 3.405874v22.221168a28.052598 27.998952 0 0 0 2.003757 1.03996v-16.081398a14.026299 13.999476 0 0 0 2.109957 2.713898l-4e-3 4e-3 15.533124 15.50342a28.052598 27.998952 0 0 0 2.280276 -0.54998l-11.30922-11.289576a14.026299 13.999476 0 0 0 3.412398 0.437984h23.007138a28.052598 27.998952 0 0 0 1.260364 -1.999926h-17.074014a14.026299 13.999476 0 0 0 2.719098 -2.105922l4e-3 4e-3 17.134126-17.101358a28.052598 27.998952 0 0 0 -0.649218 -2.17792l-12.814026 12.787522a14.026299 13.999476 0 0 0 0.438822 -3.405872v-24.221094a28.052598 27.998952 0 0 0 -2.003756 -1.03976v18.081122a14.026299 13.999476 0 0 0 -2.109956 -2.713898l4e-3 -4e-3 -17.134128-17.10136zm34.268254 19.79526a28.052598 27.998952 0 0 1 0.18836 0.645974c-0.0541-0.22399-0.09818-0.453982-0.1563-0.675974l-0.03206 0.03zm-20.11171-19.889066c0.659236 0.1696 1.312462 0.347988 1.953664 0.562578a28.052598 27.998952 0 0 0 -1.953664 -0.562578zm-16.575078 0.82037a28.052598 27.998952 0 0 0 -1.430682 0.577978c0.472886-0.202192 0.945772-0.401186 1.430682-0.577978zm19.388354 0.0586c0.65122 0.24199 1.294426 0.49858 1.921602 0.78517a28.052598 27.998952 0 0 0 -1.921602 -0.785172zm-21.911084 1.01156a28.052598 27.998952 0 0 0 -1.185824 0.605576c0.389932-0.210192 0.785072-0.413384 1.185824-0.605576zm-2.367639 1.281352a28.052598 27.998952 0 0 0 -1.084033 0.683574c0.355066-0.237392 0.717545-0.462384 1.084033-0.683574zm29.723731 0.417784c0.248466 0.1606 0.506952 0.308588 0.75141 0.476582a28.052598 27.998952 0 0 0 -0.75141 -0.476582zm-31.927864 1.06636a28.052598 27.998952 0 0 0 -1.005886 0.76577c0.326412-0.26579 0.667451-0.51458 1.005886-0.76577zm-2.121177 1.742134a28.052598 27.998952 0 0 0 -0.829756 0.757772c0.267101-0.26239 0.552235-0.505982 0.829756-0.757772zm38.826799 1.050762c0.262494 0.26659 0.506952 0.551178 0.759424 0.828168a28.052598 27.998952 0 0 0 -0.759424 -0.828168zm1.737258 1.941326c0.2665 0.325788 0.514966 0.666176 0.76744 1.003962a28.052598 27.998952 0 0 0 -0.76744 -1.003962zm-44.76794 1.765534a28.052598 27.998952 0 0 0 -0.5281904 0.82817c0.177132-0.27559 0.341841-0.55918 0.5281904-0.82817zm46.336882 0.355586c0.238448 0.354388 0.462868 0.716174 0.685284 1.08196a28.052598 27.998952 0 0 0 -0.685284 -1.08196zm1.37057 2.273916c0.204382 0.375986 0.402754 0.755972 0.591108 1.143956a28.052598 27.998952 0 0 0 -0.591108 -1.143956zm-50.129994 1.655938a28.052598 27.998952 0 0 0 -0.786675 1.917928c0.2424546-0.649976 0.4995366-1.291952 0.786675-1.917928zm51.234064 0.631976c0.19636 0.461982 0.392736 0.923966 0.567064 1.397948a28.052598 27.998952 0 0 0 -0.567064 -1.397948zm-52.338134 2.14392a28.052598 27.998952 0 0 0 -0.563657 1.949926c0.169918-0.657974 0.3486538-1.30995 0.563657-1.949926zm-0.806312 2.90789a28.052598 27.998952 0 0 0 -0.3364308 1.927928c0.09578-0.647976 0.196768-1.29595 0.3364308-1.927928zm54.910958 0.663976c0.07814 0.395986 0.13826 0.79597 0.200376 1.197956a28.052598 27.998952 0 0 0 -0.200376 -1.197956zm-55.40789 2.323912a28.052598 27.998952 0 0 0 -0.1292424 2.119922 28.052598 27.998952 0 0 0 4e-3 0.086c0.023044-0.739972 0.046888-1.481944 0.125234-2.205918zm55.804634 0.483982c0.018 0.211992 0.0501 0.419986 0.06612 0.631978a28.052598 27.998952 0 0 0 -0.06612 -0.631978z" style="opacity:.2"/>
 <path d="m32.0012 4c1.01 0 2.002 0.0624 2.98 0.168a28 28 0 0 0 -2.98 -0.168zm-1.864 0.0664a28 28 0 0 0 -0.558 0.0586c0.188-0.017 0.37-0.0454 0.558-0.0586zm5.904 0.2618c0.648 0.0956 1.296 0.1964 1.928 0.3358a28 28 0 0 0 -1.928 -0.3358zm-8.204 0.0078a28 28 0 0 0 -1.132 0.1914c0.374-0.0734 0.752-0.1328 1.132-0.1914zm-2.394 0.4764a28 28 0 0 0 -2.824 0.836l12.788 12.7892a14 14 0 0 0 -3.406 -0.4376h-24.222a28 28 0 0 0 -1.0398 2h18.0818a14 14 0 0 0 -2.714 2.106l-4e-3 -4e-3 -17.1332 17.132c-0.059-0.222-0.1022-0.452-0.1564-0.676a28 28 0 0 0 0.836 2.824l12.7892-12.788a14 14 0 0 0 -0.4376 3.406v24.222a28 28 0 0 0 2 1.04v-18.082a14 14 0 0 0 2.106 2.714l-4e-3 4e-3 17.132 17.134c-0.21 0.056-0.428 0.096-0.64 0.148a28 28 0 0 0 2.788 -0.828l-12.788-12.79a14 14 0 0 0 3.406 0.438h24.222a28 28 0 0 0 1.04 -2h-18.082a14 14 0 0 0 2.714 -2.106l4e-3 4e-3 17.134-17.132c0.058 0.222 0.102 0.452 0.156 0.676a28 28 0 0 0 -0.836 -2.824l-12.79 12.788a14 14 0 0 0 0.438 -3.406v-24.222a28 28 0 0 0 -2 -1.0398v18.0818a14 14 0 0 0 -2.106 -2.714l4e-3 -4e-3 -17.132-17.1332c0.222-0.059 0.452-0.1022 0.676-0.1564zm13.484 0.0938c0.658 0.1696 1.31 0.348 1.95 0.5626a28 28 0 0 0 -1.95 -0.5626zm-16.544 0.8204a28 28 0 0 0 -1.428 0.578c0.472-0.2022 0.944-0.4012 1.428-0.578zm19.352 0.0586c0.65 0.242 1.292 0.4986 1.918 0.7852a28 28 0 0 0 -1.918 -0.7852zm-21.87 1.0116a28 28 0 0 0 -1.1836 0.6056c0.3892-0.2102 0.7836-0.4134 1.1836-0.6056zm-2.3632 1.2814a28 28 0 0 0 -1.082 0.6836c0.3544-0.2374 0.7162-0.4624 1.082-0.6836zm29.668 0.4178c0.248 0.1606 0.506 0.3086 0.75 0.4766a28 28 0 0 0 -0.75 -0.4766zm-31.868 1.0664a28 28 0 0 0 -1.004 0.7658c0.3258-0.2658 0.6662-0.5146 1.004-0.7658zm-2.1172 1.7422a28 28 0 0 0 -0.8282 0.7578c0.2666-0.2624 0.5512-0.506 0.8282-0.7578zm38.754 1.0508c0.262 0.2666 0.506 0.5512 0.758 0.8282a28 28 0 0 0 -0.758 -0.8282zm1.734 1.9414c0.266 0.3258 0.514 0.6662 0.766 1.004a28 28 0 0 0 -0.766 -1.004zm-44.684 1.7656a28 28 0 0 0 -0.5272 0.8282c0.1768-0.2756 0.3412-0.5592 0.5272-0.8282zm46.25 0.3556c0.238 0.3544 0.462 0.7162 0.684 1.082a28 28 0 0 0 -0.684 -1.082zm1.368 2.2734c0.204 0.3774 0.402 0.7568 0.59 1.1446a28 28 0 0 0 -0.59 -1.1446zm-50.036 1.6566a28 28 0 0 0 -0.7852 1.918c0.242-0.65 0.4986-1.292 0.7852-1.918zm51.138 0.632c0.196 0.462 0.392 0.924 0.566 1.398a28 28 0 0 0 -0.566 -1.398zm-52.24 2.144a28 28 0 0 0 -0.5626 1.95c0.1696-0.658 0.348-1.31 0.5626-1.95zm-0.8048 2.908a28 28 0 0 0 -0.3358 1.928c0.0956-0.648 0.1964-1.296 0.3358-1.928zm54.808 0.664c0.078 0.396 0.138 0.796 0.2 1.198a28 28 0 0 0 -0.2 -1.198zm-55.304 2.324a28 28 0 0 0 -0.168 2.98c0-1.01 0.0624-2.002 0.168-2.98zm55.7 0.484c0.018 0.212 0.05 0.42 0.066 0.632a28 28 0 0 0 -0.066 -0.632zm0.132 2.496c0 1.022-0.068 2.028-0.176 3.02a28 28 0 0 0 0.176 -3.02zm-55.934 1.918a28 28 0 0 0 0.0352 0.336c-0.0096-0.112-0.027-0.224-0.0352-0.336zm55.626 1.984c-0.1 0.698-0.206 1.392-0.356 2.07a28 28 0 0 0 0.356 -2.07zm-55.356 0.262a28 28 0 0 0 0.1914 1.132c-0.0734-0.374-0.1328-0.752-0.1914-1.132zm54.766 2.734c-0.176 0.684-0.366 1.362-0.59 2.024a28 28 0 0 0 0.59 -2.024zm-53.376 2.716a28 28 0 0 0 0.6094 1.5c-0.2136-0.496-0.424-0.992-0.6094-1.5zm52.516 0.05c-0.25 0.676-0.518 1.344-0.816 1.996a28 28 0 0 0 0.816 -1.996zm-51.472 2.414a28 28 0 0 0 0.668 1.308c-0.2334-0.428-0.4568-0.866-0.668-1.308zm1.2694 2.36a28 28 0 0 0 0.7578 1.19c-0.2624-0.39-0.5146-0.786-0.7578-1.19zm47.464 0.73c-0.16 0.248-0.308 0.506-0.476 0.75a28 28 0 0 0 0.476 -0.75zm-45.98 1.48a28 28 0 0 0 0.8086 1.062c-0.2814-0.344-0.5436-0.704-0.8086-1.062zm1.7812 2.168a28 28 0 0 0 0.7578 0.828c-0.2624-0.266-0.506-0.55-0.7578-0.828zm40.34 1.122c-0.248 0.244-0.514 0.47-0.772 0.706a28 28 0 0 0 0.772 -0.706zm-1.964 1.758c-0.298 0.242-0.61 0.468-0.918 0.698a28 28 0 0 0 0.918 -0.698zm-33.618 1.316a28 28 0 0 0 0.8282 0.528c-0.2756-0.178-0.5592-0.342-0.8282-0.528zm31.496 0.242c-0.342 0.228-0.694 0.446-1.046 0.66a28 28 0 0 0 1.046 -0.66zm-2.25 1.352c-0.376 0.204-0.756 0.402-1.144 0.59a28 28 0 0 0 1.144 -0.59zm-24.96 0.824a28 28 0 0 0 1.918 0.784c-0.65-0.242-1.292-0.498-1.918-0.784zm22.672 0.278c-0.462 0.196-0.924 0.392-1.398 0.566a28 28 0 0 0 1.398 -0.566zm-19.896 0.824a28 28 0 0 0 1.95 0.562c-0.658-0.17-1.31-0.348-1.95-0.562zm2.904 0.804a28 28 0 0 0 2.07 0.356c-0.698-0.1-1.392-0.206-2.07-0.356zm11.258 0.14c-0.37 0.072-0.744 0.13-1.118 0.188a28 28 0 0 0 1.118 -0.188zm-8.306 0.348a28 28 0 0 0 3.02 0.176c-1.022 0-2.028-0.068-3.02-0.176zm5.442 0.052c-0.188 0.016-0.37 0.044-0.558 0.058a28 28 0 0 0 0.558 -0.058z" style="fill:#ffffff"/>
 <path d="M 32 4 A 28.0005 28 0 0 0 4 32 A 28.0005 28 0 0 0 4.0175781 32.492188 A 28.0005 28 0 0 1 32 5 A 28.0005 28 0 0 1 59.974609 32.492188 A 28.0005 28 0 0 0 60 32 A 28.0005 28 0 0 0 32 4 z" style="fill:#ffffff;opacity:.2"/>
 <path d="M 59.957031 32.828125 A 28 28 0 0 1 32 60 A 28 28 0 0 1 4.0449219 33.171875 A 28 28 0 0 0 4 34 A 28 28 0 0 0 4.0253906 34.519531 A 28 28 0 0 1 4.0449219 34.171875 A 28 28 0 0 0 32 61 A 28 28 0 0 0 59.957031 33.828125 A 28 28 0 0 1 59.982422 34.507812 A 28 28 0 0 0 60 34 A 28 28 0 0 0 59.957031 32.828125 z" style="opacity:.2"/>
</svg>

<svg xmlns="http://www.w3.org/2000/svg" width="64" height="64" version="1">
 <circle style="fill:#56aad4" cx="32" cy="32" r="28"/>
 <path style="opacity:0.2" d="m 32.014728,5 c 1.011896,0 2.00576,0.0624 2.985598,0.168 A 28.052598,27.998952 0 0 0 32.014728,5 Z M 30.147226,5.0664 A 28.052598,27.998952 0 0 0 29.588178,5.125 c 0.18836,-0.017 0.370694,-0.0454 0.559048,-0.0586 z m 5.91509,0.26179 c 0.649218,0.0956 1.298436,0.1964 1.931622,0.335788 A 28.052598,27.998952 0 0 0 36.062316,5.32819 Z m -8.21941,0.0078 a 28.052598,27.998952 0 0 0 -1.134128,0.1914 c 0.374704,-0.0734 0.753414,-0.1328 1.134128,-0.1914 z m -2.398498,0.476382 c -0.22442,0.0542 -0.454852,0.0974 -0.67727,0.1564 l 0.03006,0.0312 a 28.052598,27.998952 0 0 1 0.647214,-0.1876 z m -0.647214,0.1876 a 28.052598,27.998952 0 0 0 -2.18209,0.648376 L 35.427126,19.43747 a 14.026299,13.999476 0 0 0 -3.412398,-0.437984 l -24.267502,0 A 28.052598,27.998952 0 0 0 6.7054728,20.9994 l 18.1157672,0 a 14.026299,13.999476 0 0 0 -2.719098,2.105922 l -0.004,-0.004 L 5.4062446,39.760698 A 28.052598,27.998952 0 0 0 6.1732828,41.82262 L 18.426858,29.593078 a 14.026299,13.999476 0 0 0 -0.438422,3.405874 l 0,22.221168 a 28.052598,27.998952 0 0 0 2.003757,1.03996 l 0,-16.081398 a 14.026299,13.999476 0 0 0 2.109957,2.713898 l -0.004,0.004 L 37.631274,58.4 A 28.052598,27.998952 0 0 0 39.91155,57.85002 L 28.60233,46.560444 a 14.026299,13.999476 0 0 0 3.412398,0.437984 l 23.007138,0 a 28.052598,27.998952 0 0 0 1.260364,-1.999926 l -17.074014,0 a 14.026299,13.999476 0 0 0 2.719098,-2.105922 l 0.004,0.004 17.134126,-17.101358 a 28.052598,27.998952 0 0 0 -0.649218,-2.17792 L 45.602196,36.404824 a 14.026299,13.999476 0 0 0 0.438822,-3.405872 l 0,-24.221094 a 28.052598,27.998952 0 0 0 -2.003756,-1.03976 l 0,18.081122 a 14.026299,13.999476 0 0 0 -2.109956,-2.713898 l 0.004,-0.004 -17.134128,-17.10136 z m 34.268254,19.79526 a 28.052598,27.998952 0 0 1 0.18836,0.645974 c -0.0541,-0.22399 -0.09818,-0.453982 -0.1563,-0.675974 l -0.03206,0.03 z M 38.953738,5.906166 c 0.659236,0.1696 1.312462,0.347988 1.953664,0.562578 A 28.052598,27.998952 0 0 0 38.953738,5.906166 Z M 22.37866,6.726536 A 28.052598,27.998952 0 0 0 20.947978,7.304514 C 21.420864,7.102322 21.89375,6.903328 22.37866,6.726536 Z m 19.388354,0.0586 c 0.65122,0.24199 1.294426,0.49858 1.921602,0.78517 A 28.052598,27.998952 0 0 0 41.767014,6.785134 Z M 19.85593,7.796696 A 28.052598,27.998952 0 0 0 18.670106,8.402272 C 19.060038,8.19208 19.455178,7.988888 19.85593,7.796696 Z M 17.488291,9.078048 A 28.052598,27.998952 0 0 0 16.404258,9.761622 C 16.759324,9.52423 17.121803,9.299238 17.488291,9.078048 Z m 29.723731,0.417784 c 0.248466,0.1606 0.506952,0.308588 0.75141,0.476582 a 28.052598,27.998952 0 0 0 -0.75141,-0.476582 z m -31.927864,1.06636 a 28.052598,27.998952 0 0 0 -1.005886,0.76577 c 0.326412,-0.26579 0.667451,-0.51458 1.005886,-0.76577 z m -2.121177,1.742134 a 28.052598,27.998952 0 0 0 -0.829756,0.757772 c 0.267101,-0.26239 0.552235,-0.505982 0.829756,-0.757772 z m 38.826799,1.050762 c 0.262494,0.26659 0.506952,0.551178 0.759424,0.828168 A 28.052598,27.998952 0 0 0 51.98978,13.355088 Z m 1.737258,1.941326 c 0.2665,0.325788 0.514966,0.666176 0.76744,1.003962 a 28.052598,27.998952 0 0 0 -0.76744,-1.003962 z M 8.9590984,17.061948 a 28.052598,27.998952 0 0 0 -0.5281904,0.82817 c 0.177132,-0.27559 0.341841,-0.55918 0.5281904,-0.82817 z M 55.29598,17.417534 c 0.238448,0.354388 0.462868,0.716174 0.685284,1.08196 a 28.052598,27.998952 0 0 0 -0.685284,-1.08196 z m 1.37057,2.273916 c 0.204382,0.375986 0.402754,0.755972 0.591108,1.143956 A 28.052598,27.998952 0 0 0 56.66655,19.69145 Z M 6.536556,21.347388 A 28.052598,27.998952 0 0 0 5.749881,23.265316 C 5.9923356,22.61534 6.2494176,21.973364 6.536556,21.347388 Z m 51.234064,0.631976 c 0.19636,0.461982 0.392736,0.923966 0.567064,1.397948 A 28.052598,27.998952 0 0 0 57.77062,21.979364 Z M 5.432486,24.123284 A 28.052598,27.998952 0 0 0 4.868829,26.07321 c 0.169918,-0.657974 0.3486538,-1.30995 0.563657,-1.949926 z m -0.806312,2.90789 a 28.052598,27.998952 0 0 0 -0.3364308,1.927928 c 0.09578,-0.647976 0.196768,-1.29595 0.3364308,-1.927928 z m 54.910958,0.663976 c 0.07814,0.395986 0.13826,0.79597 0.200376,1.197956 A 28.052598,27.998952 0 0 0 59.537132,27.69515 Z M 4.1292424,30.019062 A 28.052598,27.998952 0 0 0 4,32.138984 a 28.052598,27.998952 0 0 0 0.004,0.086 C 4.027044,31.485012 4.050888,30.74304 4.129234,30.019066 Z m 55.8046336,0.483982 c 0.018,0.211992 0.0501,0.419986 0.06612,0.631978 a 28.052598,27.998952 0 0 0 -0.06612,-0.631978 z"/>
 <path style="fill:#ffffff" d="m 32.0012,4 c 1.01,0 2.002,0.0624 2.98,0.168 A 28,28 0 0 0 32.0012,4 Z m -1.864,0.0664 a 28,28 0 0 0 -0.558,0.0586 c 0.188,-0.017 0.37,-0.0454 0.558,-0.0586 z m 5.904,0.2618 c 0.648,0.0956 1.296,0.1964 1.928,0.3358 a 28,28 0 0 0 -1.928,-0.3358 z m -8.204,0.0078 a 28,28 0 0 0 -1.132,0.1914 c 0.374,-0.0734 0.752,-0.1328 1.132,-0.1914 z m -2.394,0.4764 a 28,28 0 0 0 -2.824,0.836 l 12.788,12.7892 A 14,14 0 0 0 32.0012,18 l -24.222,0 a 28,28 0 0 0 -1.0398,2 l 18.0818,0 a 14,14 0 0 0 -2.714,2.106 L 22.1032,22.102 4.97,39.234 C 4.911,39.012 4.8678,38.782 4.8136,38.558 a 28,28 0 0 0 0.836,2.824 L 18.4388,28.594 A 14,14 0 0 0 18.0012,32 l 0,24.222 a 28,28 0 0 0 2,1.04 l 0,-18.082 a 14,14 0 0 0 2.106,2.714 l -0.004,0.004 17.132,17.134 c -0.21,0.056 -0.428,0.096 -0.64,0.148 a 28,28 0 0 0 2.788,-0.828 L 28.5952,45.562 A 14,14 0 0 0 32.0012,46 l 24.222,0 a 28,28 0 0 0 1.04,-2 l -18.082,0 a 14,14 0 0 0 2.714,-2.106 l 0.004,0.004 17.134,-17.132 c 0.058,0.222 0.102,0.452 0.156,0.676 a 28,28 0 0 0 -0.836,-2.824 l -12.79,12.788 A 14,14 0 0 0 46.0012,32 l 0,-24.222 a 28,28 0 0 0 -2,-1.0398 l 0,18.0818 a 14,14 0 0 0 -2.106,-2.714 l 0.004,-0.004 -17.132,-17.1332 c 0.222,-0.059 0.452,-0.1022 0.676,-0.1564 z m 13.484,0.0938 c 0.658,0.1696 1.31,0.348 1.95,0.5626 a 28,28 0 0 0 -1.95,-0.5626 z m -16.544,0.8204 a 28,28 0 0 0 -1.428,0.578 c 0.472,-0.2022 0.944,-0.4012 1.428,-0.578 z m 19.352,0.0586 c 0.65,0.242 1.292,0.4986 1.918,0.7852 a 28,28 0 0 0 -1.918,-0.7852 z m -21.87,1.0116 A 28,28 0 0 0 18.6816,7.4024 C 19.0708,7.1922 19.4652,6.989 19.8652,6.7968 Z M 17.502,8.0782 A 28,28 0 0 0 16.42,8.7618 C 16.7744,8.5244 17.1362,8.2994 17.502,8.0782 Z M 47.17,8.496 c 0.248,0.1606 0.506,0.3086 0.75,0.4766 A 28,28 0 0 0 47.17,8.496 Z M 15.302,9.5624 a 28,28 0 0 0 -1.004,0.7658 c 0.3258,-0.2658 0.6662,-0.5146 1.004,-0.7658 z m -2.1172,1.7422 a 28,28 0 0 0 -0.8282,0.7578 c 0.2666,-0.2624 0.5512,-0.506 0.8282,-0.7578 z m 38.754,1.0508 c 0.262,0.2666 0.506,0.5512 0.758,0.8282 a 28,28 0 0 0 -0.758,-0.8282 z m 1.734,1.9414 c 0.266,0.3258 0.514,0.6662 0.766,1.004 a 28,28 0 0 0 -0.766,-1.004 z M 8.9888,16.0624 A 28,28 0 0 0 8.4616,16.8906 C 8.6384,16.615 8.8028,16.3314 8.9888,16.0624 Z m 46.25,0.3556 c 0.238,0.3544 0.462,0.7162 0.684,1.082 a 28,28 0 0 0 -0.684,-1.082 z m 1.368,2.2734 c 0.204,0.3774 0.402,0.7568 0.59,1.1446 a 28,28 0 0 0 -0.59,-1.1446 z M 6.5708,20.348 a 28,28 0 0 0 -0.7852,1.918 c 0.242,-0.65 0.4986,-1.292 0.7852,-1.918 z m 51.138,0.632 c 0.196,0.462 0.392,0.924 0.566,1.398 a 28,28 0 0 0 -0.566,-1.398 z m -52.24,2.144 a 28,28 0 0 0 -0.5626,1.95 c 0.1696,-0.658 0.348,-1.31 0.5626,-1.95 z M 4.664,26.032 A 28,28 0 0 0 4.3282,27.96 C 4.4238,27.312 4.5246,26.664 4.664,26.032 Z m 54.808,0.664 c 0.078,0.396 0.138,0.796 0.2,1.198 a 28,28 0 0 0 -0.2,-1.198 z M 4.168,29.02 A 28,28 0 0 0 4,32 c 0,-1.01 0.0624,-2.002 0.168,-2.98 z m 55.7,0.484 c 0.018,0.212 0.05,0.42 0.066,0.632 A 28,28 0 0 0 59.868,29.504 Z M 60,32 c 0,1.022 -0.068,2.028 -0.176,3.02 A 28,28 0 0 0 60,32 Z M 4.066,33.918 a 28,28 0 0 0 0.0352,0.336 C 4.0916,34.142 4.0742,34.03 4.066,33.918 Z m 55.626,1.984 c -0.1,0.698 -0.206,1.392 -0.356,2.07 a 28,28 0 0 0 0.356,-2.07 z M 4.336,36.164 a 28,28 0 0 0 0.1914,1.132 C 4.454,36.922 4.3946,36.544 4.336,36.164 Z m 54.766,2.734 c -0.176,0.684 -0.366,1.362 -0.59,2.024 a 28,28 0 0 0 0.59,-2.024 z M 5.726,41.614 a 28,28 0 0 0 0.6094,1.5 C 6.1218,42.618 5.9114,42.122 5.726,41.614 Z m 52.516,0.05 c -0.25,0.676 -0.518,1.344 -0.816,1.996 a 28,28 0 0 0 0.816,-1.996 z M 6.77,44.078 a 28,28 0 0 0 0.668,1.308 C 7.2046,44.958 6.9812,44.52 6.77,44.078 Z m 1.2694,2.36 a 28,28 0 0 0 0.7578,1.19 C 8.5348,47.238 8.2826,46.842 8.0394,46.438 Z m 47.464,0.73 c -0.16,0.248 -0.308,0.506 -0.476,0.75 a 28,28 0 0 0 0.476,-0.75 z m -45.98,1.48 A 28,28 0 0 0 10.332,49.71 C 10.0506,49.366 9.7884,49.006 9.5234,48.648 Z m 1.7812,2.168 a 28,28 0 0 0 0.7578,0.828 C 11.8,51.378 11.5564,51.094 11.3046,50.816 Z m 40.34,1.122 c -0.248,0.244 -0.514,0.47 -0.772,0.706 a 28,28 0 0 0 0.772,-0.706 z m -1.964,1.758 c -0.298,0.242 -0.61,0.468 -0.918,0.698 a 28,28 0 0 0 0.918,-0.698 z m -33.618,1.316 a 28,28 0 0 0 0.8282,0.528 c -0.2756,-0.178 -0.5592,-0.342 -0.8282,-0.528 z m 31.496,0.242 c -0.342,0.228 -0.694,0.446 -1.046,0.66 a 28,28 0 0 0 1.046,-0.66 z m -2.25,1.352 c -0.376,0.204 -0.756,0.402 -1.144,0.59 a 28,28 0 0 0 1.144,-0.59 z m -24.96,0.824 a 28,28 0 0 0 1.918,0.784 c -0.65,-0.242 -1.292,-0.498 -1.918,-0.784 z m 22.672,0.278 c -0.462,0.196 -0.924,0.392 -1.398,0.566 a 28,28 0 0 0 1.398,-0.566 z m -19.896,0.824 a 28,28 0 0 0 1.95,0.562 c -0.658,-0.17 -1.31,-0.348 -1.95,-0.562 z m 2.904,0.804 a 28,28 0 0 0 2.07,0.356 c -0.698,-0.1 -1.392,-0.206 -2.07,-0.356 z m 11.258,0.14 c -0.37,0.072 -0.744,0.13 -1.118,0.188 a 28,28 0 0 0 1.118,-0.188 z m -8.306,0.348 a 28,28 0 0 0 3.02,0.176 c -1.022,0 -2.028,-0.068 -3.02,-0.176 z m 5.442,0.052 c -0.188,0.016 -0.37,0.044 -0.558,0.058 a 28,28 0 0 0 0.558,-0.058 z"/>
 <path style="opacity:0.2;fill:#ffffff" d="M 32 4 A 28.0005 28 0 0 0 4 32 A 28.0005 28 0 0 0 4.0175781 32.492188 A 28.0005 28 0 0 1 32 5 A 28.0005 28 0 0 1 59.974609 32.492188 A 28.0005 28 0 0 0 60 32 A 28.0005 28 0 0 0 32 4 z"/>
 <path style="opacity:0.2" d="M 59.957031 32.828125 A 28 28 0 0 1 32 60 A 28 28 0 0 1 4.0449219 33.171875 A 28 28 0 0 0 4 34 A 28 28 0 0 0 4.0253906 34.519531 A 28 28 0 0 1 4.0449219 34.171875 A 28 28 0 0 0 32 61 A 28 28 0 0 0 59.957031 33.828125 A 28 28 0 0 1 59.982422 34.507812 A 28 28 0 0 0 60 34 A 28 28 0 0 0 59.957031 32.828125 z"/>
</svg>
